app/dist/common/images/fvcbankcorp.svg

<svg height="18" viewBox="0 0 18 18" width="18" xmlns="http://www.w3.org/2000/svg"><path d="m0 0h18v18h-18z" fill="#f0f3fa"/><path d="m4 11h-1v-5h4.13l1.17 3.56 1.1-3.56h1.16l-1.7 5h-1.23l-1.3-4h-2.33v1h2v1h-2zm8.5.05a2.5 2.5 0 0 0 2.46-2.05h-1.06a1.5 1.5 0 1 1 0-1h1.04a2.5 2.5 0 0 0 -2.45-2 2.51 2.51 0 0 0 -2.49 2.52c0 1.4 1.12 2.53 2.5 2.53z" fill="#165633"/><path d="m3 12h12v1h-12z" fill="#ffcf00"/></svg>

<!-- by TradingView --><svg width="18" height="18" viewBox="0 0 18 18" xmlns="http://www.w3.org/2000/svg"><path fill="#F0F3FA" d="M0 0h18v18H0z"/><path d="M4 11H3V6h4.13L8.3 9.56 9.4 6h1.16l-1.7 5H7.63L6.33 7H4v1h2v1H4v2Zm8.5.05A2.5 2.5 0 0 0 14.96 9H13.9a1.5 1.5 0 1 1 0-1h1.04a2.5 2.5 0 0 0-2.45-2A2.51 2.51 0 0 0 10 8.52c0 1.4 1.12 2.53 2.5 2.53Z" fill="#165633"/><path fill="#FFCF00" d="M3 12h12v1H3z"/></svg>
